icons/apidog-light.svg

<svg width="256" height="256" viewBox="0 0 256 256" fill="none" xmlns="http://www.w3.org/2000/svg">
<rect width="256" height="256" rx="60" fill="#F4F2ED"/>
<path d="M176.619 164.288L173.619 161.295L173.057 160.782C161.1 149.161 145.082 142.661 128.409 142.664C111.722 142.664 95.7038 149.164 83.7605 160.788L83.373 161.163L80.4107 164.163L74.0672 170.494C72.2719 172.309 70.1346 173.75 67.7788 174.734C65.4231 175.718 62.8957 176.225 60.3428 176.225C55.2146 176.227 50.2949 174.195 46.6622 170.576C44.8674 168.786 43.4434 166.659 42.4717 164.318C41.5001 161.977 41 159.467 41 156.932C41 154.398 41.5001 151.888 42.4717 149.547C43.4434 147.206 44.8674 145.079 46.6622 143.289L60.3428 129.64L46.8309 116.209C45.0018 114.426 43.5452 112.298 42.5454 109.947C41.5456 107.597 41.0227 105.071 41.007 102.517C40.9913 99.9627 41.4832 97.4308 42.4539 95.0682C43.4247 92.7056 44.8551 90.5594 46.6622 88.7541C50.294 85.1323 55.2137 83.0985 60.3428 83.0985C65.4719 83.0985 70.3916 85.1323 74.0235 88.7541L83.9293 98.6287C95.892 110.243 111.91 116.738 128.584 116.734C145.264 116.734 161.282 110.234 173.232 98.6287C173.353 98.466 173.498 98.3227 173.663 98.2037L179.275 92.554L183.012 88.8791C184.798 87.0809 186.923 85.6554 189.264 84.6855C191.605 83.7156 194.115 83.2207 196.649 83.2294C201.775 83.2295 206.693 85.261 210.324 88.8791C213.039 91.5818 214.888 95.0327 215.632 98.7909C216.377 102.549 215.985 106.444 214.505 109.978C213.509 112.338 212.047 114.473 210.205 116.253L196.649 129.771L210.205 143.289C212.043 145.079 213.502 147.221 214.496 149.586C215.49 151.951 215.999 154.492 215.992 157.057C215.992 162.17 213.955 167.076 210.324 170.694C206.699 174.313 201.787 176.346 196.665 176.346C191.543 176.346 186.631 174.313 183.006 170.694L176.575 164.282L176.619 164.288Z" fill="url(#gradient_1)"/>
<path d="M163.17 42.4562C165.52 43.425 167.651 44.8499 169.445 46.6436C173.052 50.2628 175.074 55.1669 175.066 60.277C175.058 65.3872 173.02 70.2848 169.401 73.8924L155.72 87.5355L155.376 87.8355C148.158 94.8694 138.478 98.8058 128.399 98.8058C118.321 98.8058 108.641 94.8694 101.423 87.8355L101.079 87.5355L87.3919 73.8924C83.8035 70.2692 81.7977 65.3712 81.8141 60.2718C81.8305 55.1723 83.8677 50.2874 87.4794 46.6873C91.0964 43.0738 95.9977 41.0405 101.11 41.0323C106.223 41.0241 111.131 43.0417 114.759 46.6436L128.446 60.2867L142.083 46.6436C145.715 43.0239 150.636 40.9941 155.764 41.0001C158.308 40.9938 160.826 41.4875 163.17 42.4562Z" fill="url(#gradient_2)"/>
<path d="M93.7102 214.536C91.3631 213.568 89.2306 212.145 87.4355 210.349C83.8279 206.73 81.8058 201.825 81.814 196.715C81.8222 191.605 83.8601 186.708 87.4793 183.1L101.166 169.451L101.504 169.157C108.722 162.121 118.404 158.184 128.484 158.184C138.564 158.184 148.245 162.121 155.464 169.157L155.808 169.451L169.488 183.1C173.077 186.723 175.082 191.621 175.066 196.721C175.05 201.82 173.012 206.705 169.401 210.305C165.784 213.919 160.882 215.952 155.77 215.96C150.657 215.968 145.749 213.951 142.121 210.349L128.44 196.699L114.803 210.349C113.004 212.142 110.869 213.564 108.521 214.532C106.172 215.5 103.656 215.996 101.116 215.992C98.5757 215.999 96.0589 215.505 93.7102 214.536Z" fill="url(#gradient_3)"/>
<linearGradient id="gradient_1" x1="40.9999" y1="84.7418" x2="215.992" y2="177.713" gradientUnits="userSpaceOnUse">
<stop stop-color="#33BBFF"/>
<stop offset="1" stop-color="#3333FF"/>
</linearGradient>
<linearGradient id="gradient_2" x1="177.713" y1="101.154" x2="76.5424" y2="38.2627" gradientUnits="userSpaceOnUse">
<stop stop-color="#99C2FF"/>
<stop offset="1" stop-color="#EBF3FF"/>
</linearGradient>
<linearGradient id="gradient_3" x1="128.39" y1="215.992" x2="103.885" y2="161.307" gradientUnits="userSpaceOnUse">
<stop stop-color="#99C2FF"/>
<stop offset="1" stop-color="#EBF3FF"/>
</linearGradient>
</svg>

<svg xmlns="http://www.w3.org/2000/svg" width="256" height="256" fill="none"><rect width="256" height="256" fill="#F4F2ED" rx="60"/><path fill="url(#gradient_1)" d="m176.619 164.288-3-2.993-.562-.513a64.05 64.05 0 0 0-44.648-18.118 64 64 0 0 0-44.648 18.124l-.388.375-2.962 3-6.344 6.331a19.32 19.32 0 0 1-13.724 5.731 19.37 19.37 0 0 1-13.68-5.649 19.275 19.275 0 0 1-4.191-21.029 19.3 19.3 0 0 1 4.19-6.258l13.68-13.649-13.511-13.431a19.28 19.28 0 0 1-4.377-21.14 19.3 19.3 0 0 1 4.208-6.315 19.374 19.374 0 0 1 27.362 0l9.905 9.875a64.08 64.08 0 0 0 44.655 18.105 64.1 64.1 0 0 0 44.648-18.105q.182-.245.431-.425l5.612-5.65 3.737-3.675a19.13 19.13 0 0 1 13.637-5.65 19.38 19.38 0 0 1 13.675 5.65 19.27 19.27 0 0 1 4.181 21.099 19 19 0 0 1-4.3 6.275l-13.556 13.518 13.556 13.518a19.14 19.14 0 0 1 5.787 13.768 19.25 19.25 0 0 1-5.668 13.637 19.33 19.33 0 0 1-27.318 0l-6.431-6.412z"/><path fill="url(#gradient_2)" d="M163.17 42.456a19.3 19.3 0 0 1 6.275 4.188 19.27 19.27 0 0 1-.044 27.248L155.72 87.536l-.344.3a38.653 38.653 0 0 1-53.953 0l-.344-.3-13.687-13.644a19.27 19.27 0 0 1 .087-27.205 19.33 19.33 0 0 1 27.28-.043l13.687 13.643 13.637-13.643A19.35 19.35 0 0 1 155.764 41a19.3 19.3 0 0 1 7.406 1.456"/><path fill="url(#gradient_3)" d="M93.71 214.536a19.3 19.3 0 0 1-6.274-4.187 19.27 19.27 0 0 1 .043-27.249l13.687-13.649.338-.294a38.65 38.65 0 0 1 53.96 0l.344.294 13.68 13.649a19.267 19.267 0 0 1-.087 27.205 19.33 19.33 0 0 1-27.28.044l-13.681-13.65-13.637 13.65a19.35 19.35 0 0 1-13.687 5.643 19.3 19.3 0 0 1-7.406-1.456"/><linearGradient id="gradient_1" x1="41" x2="215.992" y1="84.742" y2="177.713" gradientUnits="userSpaceOnUse"><stop stop-color="#3BF"/><stop offset="1" stop-color="#33F"/></linearGradient><linearGradient id="gradient_2" x1="177.713" x2="76.542" y1="101.154" y2="38.263" gradientUnits="userSpaceOnUse"><stop stop-color="#99C2FF"/><stop offset="1" stop-color="#EBF3FF"/></linearGradient><linearGradient id="gradient_3" x1="128.39" x2="103.885" y1="215.992" y2="161.307" gradientUnits="userSpaceOnUse"><stop stop-color="#99C2FF"/><stop offset="1" stop-color="#EBF3FF"/></linearGradient></svg>
